X:140
T:Lisheen Polka, The
T:Din Tarrant's #2
R:polka
S:Recording of Eddie Clarke from Miltown Malbay 1984
H:See also #143
Z:id:hn-polka-140
M:2/4
L:1/8
K:G
g2 B/c/B/A/ | "S"GA Bd | fg/f/ ef | ed B>c |
dg B/c/B/A/ | GA Bd | fg/f/ ef | g2 g>e |
dg B/c/B/A/ | GA Bd | fg/f/ ef | ed B>c |
dg B/c/B/A/ | GA Bd | fg/f/ ef | gg e/f/g ||
a2 f/g/f/e/ | de fg | ag e/f/g/e/ | dB B/A/B/c/ |
dg B/c/B/A/ | GA Bd | fg/f/ ef | gg e/f/g |
a2 f/g/f/e/ | de fg | a/b/a/g/ e/f/g/e/ | dB B/A/B/c/ |
dg B/c/B/A/ | GA Bd | fg/f/ ef | g2 g>e ||
dg B/c/B/A/ | "D.S."

